X:1
T:Title
%%score { ( 1 3 ) | ( 2 4 ) }
L:1/8
M:6/4
K:Bb
V:1 bass nm="Grand Piano"
V:3 bass 
V:2 bass 
V:4 bass 
V:1
 z6 z4[Q:1/4=114] D,2 | z2[K:treble] F2 F2 z2 F2 F2 | F2 F2 G2 A2 B2 [Ac]2 | z2 d2 d2 z2 d2 d2 | %4
[M:5/4] z2 e2 e2 z2 d2 |[M:1/4] [Bd]2 |[M:6/4] z2 c2 c2 z2 B2 B2 | B,2 e2 d2 c2 A2 F2 | %8
 z2 F2 F2 z2 F2 F2 |[M:5/4] F2 F2 G2 A2 B2 |[M:1/4] [Ac]2 |[M:6/4] z2 d2 d2 z2 e2 d2 | %12
 d2 [=EBc]2 [Bd]2 [B=e]2 [Bd]2 [EBc]2 | z2 e2 e2 z2 d2 e2 |[M:5/4] z2 d2 d2 z2 d2 |[M:1/4] d2 | %16
[M:6/4] z2 e2 e2 z2 [GBe]2 [EGBe]2 | [DFBd]2 [FBd]2 d2 [Bd]2 [Bd]2 [FBd]2 | %18
 z2 [B=e]2 [=EBe]2 z2 [Bce]2 [EBce]2 |[M:5/4] [FAcf]2 [cefa]2 [Beg]2 [Acef]4 |[M:1/4] F2 | %21
[M:6/4] [Fd]4 [FA]2 [Fc]4 [FB]2 | z2 G4- G3- G/ z/ z2 | [Ge]4 [Gd]2 [Gc]2 [=Ed]4 | %24
[M:5/4] c2- c2- c6 |[M:1/4] F2 |[M:6/4] f4 [Fd]2 [^Fc]4 [FB]2 | G2 [Ge]4- [Ge]4 [Gc]2 | %28
 B4 d2 d2 c4 |[M:5/4] [DB]2- [DB]2- [DB]6 |] %30
V:2
 z12 | z2 [B,D]2 [F,B,D]2 z2 [B,D]2 [A,B,D]2 | %2
 [G,B,E]2 [A,E]2 [A,E]2 [EF]2[K:treble] [DF]2 [F,F]2 | z2 [FB]2 [DFB]2 z2 [^FA]2 [B,FAc]2 | %4
[M:5/4] z2 [EGB]2 [EGB]2 z2 [FG=B]2 |[M:1/4] [G,FG]2 |[M:6/4] z2 [EG]2 [CEG]2 z2 [EG]2 [G,EG]2 | %7
 z2 [FA]2 [FA]2 [EFA]2 [CEF]2[K:bass] [F,CE]2 | z2 [CE]2 [A,CE]2 z2 [B,E]2 [F,A,_D]2 | %9
[M:5/4] [B,D]2 [B,D]2 [B,D]2[K:treble] [DF]2 [DF]2 |[M:1/4] [F,F]2 | %11
[M:6/4] z2 [FB]2 [DFB]2 z2 [G=B]2 [DFB]2 | .[D=EB]4 F2 G2 F2 G,2 | %13
 z2 [FA]2 [CFA]2 z2 [^FA]2 [CFA]2 |[M:5/4] z2 [GB]2 [GB]2 z2 [F_AB]2 |[M:1/4] [B,FAB]2 | %16
[M:6/4] z2 [EGB]2 [B,EGB]2 z2 E2 G,2 | .B,4 B2 A2 G2[K:bass] F,2 | z2 =E2 D2 z2[K:treble] E2 G,2 | %19
[M:5/4] z2 A2 G2 F4 |[M:1/4][K:bass] F,2 |[M:6/4] [B,,B,]4 [B,,B,]2 [D,B,]4 [D,B,]2 | %22
 [E,B,]2 [E,B,E]4 [D,=B,]4 [D,B,]2 | [C,C]4 [D,=B,]2 [=E,C]2 [C,_B,]4 | %24
[M:5/4] [F,A,F]2- [F,A,F]2- [F,A,F]6 |[M:1/4] F,2 |[M:6/4] [B,,DB]4 [B,,B,]2 [D,B,]4 [D,B,]2 | %27
 [E,B,]2 [C,C]4- [C,C]4 [E,C]2 | [F,DF]4 [F,B,F]2 [F,G,F]2 [F,A,E]4 | %29
[M:5/4] [B,,F,]2- [B,,F,]2- [B,,F,]6 |] %30
V:3
 x12 | .F,6[K:treble] .G,6 | x12 | .D6 .A,6 |[M:5/4] G,2- G,2- G,6 |[M:1/4] x2 |[M:6/4] .C6 .B,6 | %7
 x12 | .A,6 .G,6 |[M:5/4] x10 |[M:1/4] x2 |[M:6/4] .D6 .E6 | x12 | .C6 .D6 |[M:5/4] B,2- B,2- B,6 | %15
[M:1/4] x2 |[M:6/4] .B,6 .A,6 | x12 | x12 |[M:5/4] x10 |[M:1/4] x2 |[M:6/4] x12 | .[FA]6 F4 [FG]2 | %23
 x12 |[M:5/4] x10 |[M:1/4] x2 |[M:6/4] x12 | x12 | x12 |[M:5/4] x10 |] %30
V:4
 x12 | x12 | z2 F,4- F,4[K:treble] z2 | x12 |[M:5/4] x10 |[M:1/4] x2 |[M:6/4] x12 | %7
 z2 A,4- A,4[K:bass] z2 | x12 |[M:5/4] F,2- F,2- F,6[K:treble] |[M:1/4] x2 |[M:6/4] x12 | %12
 z2 G,4- G,4 z2 | x12 |[M:5/4] x10 |[M:1/4] x2 |[M:6/4] x12 | z2 F,4- F,4[K:bass] z2 | %18
 .G,6 .C6[K:treble] |[M:5/4] C2- C2- C6 |[M:1/4][K:bass] x2 |[M:6/4] x12 | x12 | x12 |[M:5/4] x10 | %25
[M:1/4] x2 |[M:6/4] x12 | x12 | x12 |[M:5/4] x10 |] %30

